X: 1
T:Speed the Plough
M:C
L:1/8
Q:80
C:
S:Reel
K:HP
[| {g}A3/2{d}A/2{e}A3/2{d}c/2{g}e/2a3/2e3/2c/2|
{g}e/2a3/2e3/2c/2{g}e/2a3/2e3/2c/2|
{g}d/2f3/2{g}d3/2B/2{g}c/2e3/2{g}c/2A3/2|  !
{g}d3/2c/2{g}B3/2A/2{g}G3/2A/2{g}B/2e3/2{g}A3/2{d}A/2{e}A3/2{d}c/2{g}e/2
a3/2e3/2c/2|
{g}e/2a3/2g/2a3/2f/2a3/2e3/2c/2|
{g}d/2f3/2{g}B3/2d/2{g}c/2e3/2{g}A3/2{d}c/2|  !
{g}d3/2B/2{g}G3/2B/2{g}A3/2{d}A/2{e}A3/2e/2|] [|
a2{GdG}a3/2g/2a3/2e/2{g}c/2e3/2|
a2{GdG}a3/2g/2f3/2A/2{g}e3/2c/2|  !
{g}d3/2B/2{g}f3/2d/2{g}c/2{d}A3/2{g}e3/2c/2|
{g}d3/2c/2{g}B3/2A/2{g}G3/2A/2{g}B/2d3/2{g}c/2{d}A3/2{g}c/2e3/2a3/2e/2{g
}c/2e3/2|
{g}f3/2g/2a3/2f/2{g}e3/2c/2{g}A/2{d}c3/2|  !
{g}d/2f3/2{g}B3/2d/2{g}c/2e3/2{g}A3/2{d}c/2|
{g}d3/2B/2{g}G3/2B/2{g}A3/2{d}A/2{e}A3/2a/2|]
